public/logos/SK.svg

<?xml version="1.0" encoding="UTF-8"?>
<svg xmlns="http://www.w3.org/2000/svg" xmlns:xlink="http://www.w3.org/1999/xlink" width="176pt" height="59pt" viewBox="0 0 176 59" version="1.1">
<g id="surface1">
<rect x="0" y="0" width="176" height="59" style="fill:rgb(14.668274%,30.078125%,64.224243%);fill-opacity:1;stroke:none;"/>
<path style=" stroke:none;fill-rule:evenodd;fill:rgb(100%,100%,100%);fill-opacity:1;" d="M 93.332031 38.335938 L 82.039062 38.335938 C 82.039062 38.335938 81.972656 38.355469 81.917969 38.285156 C 81.878906 38.21875 81.960938 38.121094 81.960938 38.121094 L 96.96875 18.875 C 96.96875 18.875 97.078125 18.722656 97.199219 18.722656 C 97.316406 18.722656 97.277344 18.886719 97.277344 18.886719 L 93.511719 38.191406 C 93.511719 38.191406 93.5 38.269531 93.464844 38.304688 C 93.429688 38.335938 93.332031 38.335938 93.332031 38.335938 Z M 117.902344 4.171875 C 112.195312 4.171875 104.382812 4.171875 103.324219 4.171875 C 102.589844 4.171875 102.289062 4.59375 102.289062 4.59375 L 62.117188 54.425781 C 61.882812 54.707031 61.933594 55.007812 62.339844 55.007812 C 63.257812 55.007812 66.96875 55.007812 68.28125 55 C 68.878906 55 68.941406 54.839844 69.042969 54.6875 L 77.59375 43.726562 C 77.59375 43.726562 77.726562 43.527344 77.90625 43.527344 C 78.046875 43.527344 92.257812 43.523438 92.257812 43.523438 C 92.257812 43.523438 92.476562 43.511719 92.433594 43.726562 C 92.390625 43.945312 90.34375 54.476562 90.34375 54.476562 C 90.3125 54.617188 90.355469 55 90.855469 55 C 92.730469 55 106.230469 55 108.199219 55 C 108.449219 55 108.539062 54.914062 108.585938 54.675781 L 118.359375 4.691406 C 118.359375 4.691406 118.535156 4.171875 117.902344 4.171875 "/>
<path style=" stroke:none;fill-rule:evenodd;fill:rgb(100%,100%,100%);fill-opacity:1;" d="M 23.316406 48.652344 C 23.175781 49.246094 23.5 49.75 24.578125 50.636719 C 26.609375 52.3125 32.640625 55.953125 42.207031 55.949219 C 59.429688 55.949219 65.679688 44.808594 63.496094 35.378906 C 62.90625 32.851562 59.679688 19.800781 59.214844 17.957031 C 57.859375 12.613281 60.457031 8.765625 65.554688 8.761719 C 69.917969 8.757812 72.640625 10.410156 75.019531 11.90625 C 75.46875 12.1875 75.800781 12.347656 75.917969 11.820312 C 75.988281 11.519531 76.769531 7.457031 76.769531 7.457031 C 76.769531 7.457031 77.003906 6.667969 75.976562 6.132812 C 74.394531 5.304688 70.453125 3.074219 62.144531 3.070312 C 46.695312 3.0625 40.121094 12.972656 42.8125 23.722656 C 43.671875 27.167969 47.117188 40.039062 47.128906 42.515625 C 47.132812 43.476562 47.636719 50.042969 39.714844 50.042969 C 32.367188 50.042969 27.300781 45.027344 25.59375 43.289062 C 25.3125 42.996094 24.933594 43.15625 24.757812 43.789062 C 24.667969 44.113281 23.316406 48.652344 23.316406 48.652344 "/>
<path style=" stroke:none;fill-rule:evenodd;fill:rgb(100%,100%,100%);fill-opacity:1;" d="M 114.667969 48.910156 C 114.527344 49.507812 114.851562 50.011719 115.929688 50.902344 C 117.960938 52.578125 123.511719 55.933594 133.085938 55.929688 C 150.304688 55.929688 156.554688 44.792969 154.367188 35.355469 C 153.785156 32.835938 150.558594 19.78125 150.089844 17.941406 C 148.734375 12.597656 151.332031 8.746094 156.429688 8.742188 C 160.792969 8.742188 163.511719 10.394531 165.894531 11.890625 C 166.34375 12.175781 166.675781 12.324219 166.789062 11.804688 C 166.859375 11.5 167.644531 7.4375 167.644531 7.4375 C 167.644531 7.4375 167.878906 6.652344 166.855469 6.113281 C 165.269531 5.289062 161.324219 3.054688 153.023438 3.050781 C 137.570312 3.042969 130.996094 12.960938 133.6875 23.710938 C 134.550781 27.148438 137.992188 40.019531 138.007812 42.507812 C 138.007812 43.460938 138.511719 50.027344 130.59375 50.027344 C 123.238281 50.027344 118.386719 45.179688 116.664062 43.460938 C 116.28125 43.082031 115.710938 43.222656 115.636719 43.773438 C 115.585938 44.109375 114.667969 48.910156 114.667969 48.910156 "/>
</g>
</svg>

<svg xmlns="http://www.w3.org/2000/svg" width="176pt" height="59pt" viewBox="0 0 176 59"><path d="M0 0h176v59H0z" style="fill:#254da4;fill-opacity:1;stroke:none"/><path d="M93.332 38.336H82.039s-.066.02-.121-.05c-.04-.067.043-.165.043-.165l15.008-19.246s.11-.152.23-.152c.117 0 .078.164.078.164L93.512 38.19s-.012.079-.047.114c-.035.03-.133.03-.133.03m24.57-34.164h-14.578c-.734 0-1.035.422-1.035.422L62.117 54.426c-.234.281-.183.582.223.582.918 0 4.629 0 5.941-.008.598 0 .66-.16.762-.312l8.55-10.961s.134-.2.313-.2l14.352-.004s.219-.011.176.204l-2.09 10.75c-.031.14.011.523.511.523H108.2c.25 0 .34-.086.387-.324l9.773-49.985s.176-.52-.457-.52M23.316 48.652c-.14.594.184 1.098 1.262 1.985 2.031 1.675 8.063 5.316 17.629 5.312 17.223 0 23.473-11.14 21.29-20.57-.59-2.527-3.817-15.578-4.282-17.422-1.356-5.344 1.242-9.191 6.34-9.195 4.363-.004 7.086 1.648 9.465 3.144.449.281.78.442.898-.086.07-.3.852-4.363.852-4.363s.234-.789-.793-1.324c-1.582-.828-5.524-3.059-13.832-3.063-15.45-.007-22.024 9.903-19.333 20.653.86 3.445 4.305 16.316 4.317 18.793.004.96.508 7.527-7.414 7.527-7.348 0-12.414-5.016-14.121-6.754-.282-.293-.66-.133-.836.5-.09.324-1.442 4.863-1.442 4.863M114.668 48.91c-.14.598.184 1.102 1.262 1.992 2.03 1.676 7.582 5.032 17.156 5.028 17.219 0 23.469-11.137 21.281-20.575-.582-2.52-3.808-15.574-4.277-17.414-1.356-5.343 1.242-9.195 6.34-9.199 4.363 0 7.082 1.653 9.465 3.149.449.285.78.433.894-.086.07-.305.856-4.367.856-4.367s.234-.786-.79-1.325c-1.585-.824-5.53-3.058-13.832-3.062-15.453-.008-22.027 9.91-19.335 20.66.863 3.437 4.304 16.309 4.32 18.797 0 .953.504 7.52-7.414 7.52-7.356 0-12.207-4.848-13.93-6.567-.383-.379-.953-.238-1.027.312-.051.336-.969 5.137-.969 5.137" style="stroke:none;fill-rule:evenodd;fill:#fff;fill-opacity:1"/></svg>
